X: 575
U:~=!turn!
M:9/8
L:1/8
K:D mixolydian
|: dBd ece dBG | A2A ABG FED & F2A xxx xxx  | dBd ece def | g2G GAG FED :|
|: gag f2e dBG | A2A ABA FED & F2A xxx F2D | gag f2e def | g2[Gg] [Gg][Aa][Gg] [Ff][Ee][Dd] :|


